X: 132
T: Lady Gray's Reel
B: 204 Favourite Country Dances
N: Published by Straight & Skillern, London ca.1775
F: http://imslp.org/wiki/204_Favourite_Country_Dances_(Various) p.66 #132
Z: 2014 John Chambers <jc:trillian.mit.edu>
M: C
L: 1/8
K: D
% - - - - - - - - - - - - - - - - - - - - - - - - -
|:\
dA FD dA FD | GBAF E/E/E E2 |\
dA AF dA AF | GBAF D/D/D D2 :|
|:\
Aceg Adfa | fdcd e/e/e e2 |\
Aceg Adfa | fdAc d/d/d d2 :|
% - - - - - - - - - - - - - - - - - - - - - - - - -
%%begintext align
%% Cast off 2 Cu. .| cast up again .|. cross over
%% 2 Cu. .|: lead up and cast off :|: set corners
%% and turn :|| lead outsides :||:
%%endtext

%%sep 1 1 500
%%sep 1 1 500
